**harm	**harte	**timestamp	**phrase	**leadinstrument	**kern
*M4/4	*M4/4	*	*	*	*
*F:	*F:	*	*	*	*F:
1r;	N	0	.	r	1r;
=1	=1	=1	=1	=1	=1
*>A2_intro	*>A2_intro	*>A2_intro	*>A2_intro	*>A2_intro	*>A2_intro
2iii7	A:min7	1.007	newline	r	2A 2cc 2ee 2gg
2vi7	D:min7	1.978	.	r	2D 2f 2a 2cc
=2	=2	=2	=2	=2	=2
2ii7	G:min7	2.949	.	r	2G 2b- 2dd 2ff
2V7	C:7(11)	3.921	.	r	2C 2e 2g 2b-
=3	=3	=3	=3	=3	=3
2iii7	A:min7	4.892	.	r	2A 2cc 2ee 2gg
2vi7	D:min7	5.863	.	r	2D 2f 2a 2cc
=4	=4	=4	=4	=4	=4
2ii7	G:min7	6.834	.	r	2G 2b- 2dd 2ff
2V7	C:7(11)	7.805	.	r	2C 2e 2g 2b-
=5	=5	=5	=5	=5	=5
2iii7	A:min7	8.776	newline	r	2A 2cc 2ee 2gg
2vi7	D:min7	9.735	.	r	2D 2f 2a 2cc
=6	=6	=6	=6	=6	=6
2ii7	G:min7	10.693	.	r	2G 2b- 2dd 2ff
4ii	G:min	11.651	.	r	4G 4b- 4dd
4I	F:maj	12.13	.	r	4F 4a 4cc
=7	=7	=7	=7	=7	=7
1-VII	E-:maj	12.609	.	r	1E- 1g 1b-
=8	=8	=8	=8	=8	=8
1V7	C:7(11)	14.526	.	r	1C 1e 1g 1b-
=9	=9	=9	=9	=9	=9
*>A_chorus	*>A_chorus	*>A_chorus	*>A_chorus	*>A_chorus	*>A_chorus
2iii7	A:min7	16.442	newline	voice	2A 2cc 2ee 2gg
2vi7	D:min7	17.43	.	voice	2D 2f 2a 2cc
=10	=10	=10	=10	=10	=10
2ii7	G:min7	18.419	.	voice	2G 2b- 2dd 2ff
2V7	C:7(11)	19.407	.	voice	2C 2e 2g 2b-
=11	=11	=11	=11	=11	=11
2iii7	A:min7	20.396	.	voice	2A 2cc 2ee 2gg
2vi7	D:min7	21.384	.	voice	2D 2f 2a 2cc
=12	=12	=12	=12	=12	=12
2ii7	G:min7	22.373	.	voice	2G 2b- 2dd 2ff
2V7	C:7(11)	23.361	.	voice	2C 2e 2g 2b-
=13	=13	=13	=13	=13	=13
2iii7	A:min7	24.35	newline	voice	2A 2cc 2ee 2gg
2vi7	D:min7	25.3	.	voice	2D 2f 2a 2cc
=14	=14	=14	=14	=14	=14
2ii7	G:min7	26.25	.	voice	2G 2b- 2dd 2ff
2V7	C:7(11)	27.201	.	voice	2C 2e 2g 2b-
=15	=15	=15	=15	=15	=15
2iii7	A:min7	28.151	.	voice	2A 2cc 2ee 2gg
2vi7	D:min7	29.101	.	voice	2D 2f 2a 2cc
=16	=16	=16	=16	=16	=16
2ii7	G:min7	30.052	.	voice	2G 2b- 2dd 2ff
2V7	C:7(11)	31.002	.	voice	2C 2e 2g 2b-
=17	=17	=17	=17	=17	=17
4IV7	B-:maj7	31.953	newline	voice	4B- 4dd 4ff 4aa
2iii7	A:min7	32.467	.	voice	2A 2cc 2ee 2gg
4ii7	G:min7	33.496	.	voice	4G 4b- 4dd 4ff
=18	=18	=18	=18	=18	=18
1I7	F:maj7	34.011	.	voice	1F 1a 1cc 1ee
=19	=19	=19	=19	=19	=19
1viio7b	E:hdim7/b3	36.069	.	voice	1e 1G 1b- 1dd
=20	=20	=20	=20	=20	=20
*d:	*d:	*	*	*	*d:
1V7	A:7(b9)	38.128	.	voice	1A 1cc# 1ee 1gg
=21	=21	=21	=21	=21	=21
*>B_verse	*>B_verse	*>B_verse	*>B_verse	*>B_verse	*>B_verse
1IM7	D:maj7	40.186	newline	voice	1D 1f# 1a 1cc#
=22	=22	=22	=22	=22	=22
1V7	A:7(b9,b13)	42.283	.	voice	1A 1cc# 1ee 1gg
=23	=23	=23	=23	=23	=23
1IM7	D:maj7	44.381	.	voice	1D 1f# 1a 1cc#
=24	=24	=24	=24	=24	=24
1V7	A:7(b9,b13)	46.479	.	voice	1A 1cc# 1ee 1gg
=25	=25	=25	=25	=25	=25
1i	D:min	48.576	newline	voice	1D 1f 1a
=26	=26	=26	=26	=26	=26
1id	D:min/b7	50.576	.	voice	1d 1f 1a
=27	=27	=27	=27	=27	=27
1vio	B:dim(b13)	52.577	.	voice	1B- 1dd- 1ff-
=28	=28	=28	=28	=28	=28
*F:	*F:	*	*	*	*F:
2ivm7	B-:min9	54.577	.	voice	2B- 2dd- 2ff 2aa
2-VIIm7	E-:9	55.577	.	voice	2E- 2g 2b- 2dd
=29	=29	=29	=29	=29	=29
1I7	F:maj7	56.577	newline	voice	1F 1a 1cc 1ee
=30	=30	=30	=30	=30	=30
1I7	F:maj7	58.641	.	voice	1F 1a 1cc 1ee
=31	=31	=31	=31	=31	=31
1iii7	A:min7	60.705	.	voice	1A 1cc 1ee 1gg
=32	=32	=32	=32	=32	=32
1VI7	D:7(b9,#11)	62.77	.	voice	1D 1f# 1a 1cc
=33	=33	=33	=33	=33	=33
2.II7	G:13	64.834	newline	voice	2G 2b 2dd 2ff
4II7	G:7(b13)	66.32	.	voice	4G 4b 4dd 4ff
=34	=34	=34	=34	=34	=34
1II7	G:9	66.815	.	voice	1G 1b 1dd 1ff
=35	=35	=35	=35	=35	=35
1V	C:1	68.796	.	voice	1C 1e 1g
=36	=36	=36	=36	=36	=36
1V	C:1	70.777	.	voice	1C 1e 1g
=37	=37	=37	=37	=37	=37
*>A_chorus	*>A_chorus	*>A_chorus	*>A_chorus	*>A_chorus	*>A_chorus
2iii7	A:min7	72.758	newline	voice	2A 2cc 2ee 2gg
2vi7	D:min7	73.733	.	voice	2D 2f 2a 2cc
=38	=38	=38	=38	=38	=38
2ii7	G:min7	74.709	.	voice	2G 2b- 2dd 2ff
2V7	C:7(11)	75.685	.	voice	2C 2e 2g 2b-
=39	=39	=39	=39	=39	=39
2iii7	A:min7	76.66	.	voice	2A 2cc 2ee 2gg
2vi7	D:min7	77.636	.	voice	2D 2f 2a 2cc
=40	=40	=40	=40	=40	=40
2ii7	G:min7	78.611	.	voice	2G 2b- 2dd 2ff
2V7	C:7(11)	79.587	.	voice	2C 2e 2g 2b-
=41	=41	=41	=41	=41	=41
2iii7	A:min7	80.563	newline	voice	2A 2cc 2ee 2gg
2vi7	D:min7	81.545	.	voice	2D 2f 2a 2cc
=42	=42	=42	=42	=42	=42
2ii7	G:min7	82.528	.	voice	2G 2b- 2dd 2ff
2V7	C:7(11)	83.51	.	voice	2C 2e 2g 2b-
=43	=43	=43	=43	=43	=43
2iii7	A:min7	84.493	.	voice	2A 2cc 2ee 2gg
2vi7	D:min7	85.476	.	voice	2D 2f 2a 2cc
=44	=44	=44	=44	=44	=44
2ii7	G:min7	86.458	.	voice	2G 2b- 2dd 2ff
2V7	C:7(11)	87.441	.	voice	2C 2e 2g 2b-
=45	=45	=45	=45	=45	=45
4IV7	B-:maj7	88.424	newline	voice	4B- 4dd 4ff 4aa
2iii7	A:min7	88.961	.	voice	2A 2cc 2ee 2gg
4ii7	G:min7	90.036	.	voice	4G 4b- 4dd 4ff
=46	=46	=46	=46	=46	=46
1I7	F:maj7	90.573	.	voice	1F 1a 1cc 1ee
=47	=47	=47	=47	=47	=47
1viio7b	E:hdim7/b3	92.722	.	voice	1e 1G 1b- 1dd
=48	=48	=48	=48	=48	=48
*d:	*d:	*	*	*	*d:
1V7	A:7(b9)	94.872	.	voice	1A 1cc# 1ee 1gg
=49	=49	=49	=49	=49	=49
*>B_verse	*>B_verse	*>B_verse	*>B_verse	*>B_verse	*>B_verse
1IM7	D:maj7	97.021	newline	voice	1D 1f# 1a 1cc#
=50	=50	=50	=50	=50	=50
1V7	A:7(b9,b13)	99.117	.	voice	1A 1cc# 1ee 1gg
=51	=51	=51	=51	=51	=51
1IM7	D:maj7	101.213	.	voice	1D 1f# 1a 1cc#
=52	=52	=52	=52	=52	=52
1V7	A:7(b9,b13)	103.308	.	voice	1A 1cc# 1ee 1gg
=53	=53	=53	=53	=53	=53
1i	D:min	105.404	newline	voice	1D 1f 1a
=54	=54	=54	=54	=54	=54
1id	D:min/b7	107.392	.	voice	1d 1f 1a
=55	=55	=55	=55	=55	=55
1vio	B:dim(b13)	109.381	.	voice	1B- 1dd- 1ff-
=56	=56	=56	=56	=56	=56
*F:	*F:	*	*	*	*F:
2ivm7	B-:min9	111.369	.	voice	2B- 2dd- 2ff 2aa
2-VIIm7	E-:9	112.364	.	voice	2E- 2g 2b- 2dd
=57	=57	=57	=57	=57	=57
1I7	F:maj7	113.358	newline	voice	1F 1a 1cc 1ee
=58	=58	=58	=58	=58	=58
1I7	F:maj7	115.307	.	voice	1F 1a 1cc 1ee
=59	=59	=59	=59	=59	=59
1iii7	A:min7	117.255	.	voice	1A 1cc 1ee 1gg
=60	=60	=60	=60	=60	=60
1VI7	D:7(b9,#11)	119.204	.	voice	1D 1f# 1a 1cc
=61	=61	=61	=61	=61	=61
2.II7	G:13	121.153	newline	voice	2G 2b 2dd 2ff
4II7	G:7(b13)	122.652	.	voice	4G 4b 4dd 4ff
=62	=62	=62	=62	=62	=62
1II7	G:9	123.152	.	voice	1G 1b 1dd 1ff
=63	=63	=63	=63	=63	=63
1V	C:1	125.15	.	voice	1C 1e 1g
=64	=64	=64	=64	=64	=64
2V	C:1	127.149	.	voice	2C 2e 2g
*G-:	*G-:	*	*	*	*G-:
2V7	D-:1	128.148	.	voice	2D- 2f 2a- 2cc-
=65	=65	=65	=65	=65	=65
*>A_chorus	*>A_chorus	*>A_chorus	*>A_chorus	*>A_chorus	*>A_chorus
2iii7	B-:min7	129.147	newline	voice	2B- 2dd- 2ff 2aa-
2vi7	E-:min7	130.117	.	voice	2E- 2g- 2b- 2dd-
=66	=66	=66	=66	=66	=66
2ii7	A-:min7	131.086	.	voice	2A- 2cc- 2ee- 2gg-
2II7	D-:7(11)	132.055	.	voice	2A- 2cc 2ee- 2gg-
=67	=67	=67	=67	=67	=67
2iii7	B-:min7	133.024	.	voice	2B- 2dd- 2ff 2aa-
2vi7	E-:min7	133.993	.	voice	2E- 2g- 2b- 2dd-
=68	=68	=68	=68	=68	=68
2ii7	A-:min7	134.962	.	voice	2A- 2cc- 2ee- 2gg-
2II7	D-:7(11)	135.931	.	voice	2A- 2cc 2ee- 2gg-
=69	=69	=69	=69	=69	=69
2iii7	B-:min7	136.9	newline	voice	2B- 2dd- 2ff 2aa-
2vi7	E-:min7	137.871	.	voice	2E- 2g- 2b- 2dd-
=70	=70	=70	=70	=70	=70
2ii7	A-:min7	138.842	.	voice	2A- 2cc- 2ee- 2gg-
2II7	D-:7(11)	139.813	.	voice	2A- 2cc 2ee- 2gg-
=71	=71	=71	=71	=71	=71
2iii7	B-:min7	140.785	.	voice	2B- 2dd- 2ff 2aa-
2vi7	E-:min7	141.756	.	voice	2E- 2g- 2b- 2dd-
=72	=72	=72	=72	=72	=72
2ii7	A-:min7	142.727	.	voice	2A- 2cc- 2ee- 2gg-
2II7	D-:7(11)	143.698	.	voice	2A- 2cc 2ee- 2gg-
=73	=73	=73	=73	=73	=73
4IV7	C-:maj7	144.669	newline	voice	4C- 4e- 4g- 4b-
2iii7	B-:min7	145.143	.	voice	2B- 2dd- 2ff 2aa-
4ii7	A-:min7	146.09	.	voice	4A- 4cc- 4ee- 4gg-
=74	=74	=74	=74	=74	=74
1V7	D-:sus4(b7)	146.564	.	voice	1D- 1f 1a- 1cc-
=75	=75	=75	=75	=75	=75
*>A_chorus	*>A_chorus	*>A_chorus	*>A_chorus	*>A_chorus	*>A_chorus
2iii7	B-:min7	148.46	newline	voice	2B- 2dd- 2ff 2aa-
2vi7	E-:min7	149.414	.	voice	2E- 2g- 2b- 2dd-
=76	=76	=76	=76	=76	=76
2ii7	A-:min7	150.368	.	voice	2A- 2cc- 2ee- 2gg-
2II7	D-:7(11)	151.323	.	voice	2A- 2cc 2ee- 2gg-
=77	=77	=77	=77	=77	=77
2iii7	B-:min7	152.277	.	voice	2B- 2dd- 2ff 2aa-
2vi7	E-:min7	153.231	.	voice	2E- 2g- 2b- 2dd-
=78	=78	=78	=78	=78	=78
2ii7	A-:min7	154.185	.	voice	2A- 2cc- 2ee- 2gg-
2II7	D-:7(11)	155.14	.	voice	2A- 2cc 2ee- 2gg-
=79	=79	=79	=79	=79	=79
2iii7	B-:min7	156.094	newline	voice	2B- 2dd- 2ff 2aa-
2vi7	E-:min7	157.041	.	voice	2E- 2g- 2b- 2dd-
=80	=80	=80	=80	=80	=80
2ii7	A-:min7	157.988	.	voice	2A- 2cc- 2ee- 2gg-
2II7	D-:7(11)	158.935	.	voice	2A- 2cc 2ee- 2gg-
=81	=81	=81	=81	=81	=81
2iii7	B-:min7	159.882	.	voice	2B- 2dd- 2ff 2aa-
2vi7	E-:min7	160.829	.	voice	2E- 2g- 2b- 2dd-
=82	=82	=82	=82	=82	=82
2ii7	A-:min7	161.777	.	voice	2A- 2cc- 2ee- 2gg-
2II7	D-:7(11)	162.724	.	voice	2A- 2cc 2ee- 2gg-
=83	=83	=83	=83	=83	=83
*>_fadeout	*>_fadeout	*>_fadeout	*>_fadeout	*>_fadeout	*>_fadeout
2iii7	B-:min7	163.671	newline	voice	2B- 2dd- 2ff 2aa-
2vi7	E-:min7	164.622	.	voice	2E- 2g- 2b- 2dd-
=84	=84	=84	=84	=84	=84
2ii7	A-:min7	165.574	.	voice	2A- 2cc- 2ee- 2gg-
2II7	D-:7(11)	166.526	.	voice	2A- 2cc 2ee- 2gg-
=85	=85	=85	=85	=85	=85
2iii7	B-:min7	167.477	.	voice	2B- 2dd- 2ff 2aa-
2vi7	E-:min7	168.429	.	voice	2E- 2g- 2b- 2dd-
=86	=86	=86	=86	=86	=86
2ii7	A-:min7	169.38	.	voice	2A- 2cc- 2ee- 2gg-
2II7	D-:7(11)	170.332	.	voice	2A- 2cc 2ee- 2gg-
=87	=87	=87	=87	=87	=87
2iii7	B-:min7	171.284	newline	voice	2B- 2dd- 2ff 2aa-
2vi7	E-:min7	172.055	.	voice	2E- 2g- 2b- 2dd-
=88	=88	=88	=88	=88	=88
2ii7	A-:min7	172.827	.	voice	2A- 2cc- 2ee- 2gg-
2II7	D-:7(11)	173.599	.	voice	2A- 2cc 2ee- 2gg-
=89	=89	=89	=89	=89	=89
2iii7	B-:min7	174.371	.	voice	2B- 2dd- 2ff 2aa-
2vi7	E-:min7	175.143	.	voice	2E- 2g- 2b- 2dd-
1r;	N	175.914	.	r	1r;
1r;	N	179.644	.	r	1r;
*-	*-	*-	*-	*-	*-
!!!OTL: If You Really Love Me
!!!COC: Stevie Wonder
!!!BillboardChartDate: 1971/09/04
!!!BillboardPeak: 8
!!!BillboardWeeksOnChart: 14
!!!SampleTargetRank: 36
!!!SampleActualRank: 37
!!!SampleID#: 0631
!!!RDF**harmony: **recip + pitch class of root + harmonic quality
!!!RDF**harte: Chris Harte's syntax, used by MIREX
!!!RDF**phrase: newline = linebreak in original McGill transcription
!!!RDF**timestamp: McGill audio timestamp in seconds
!!!RDF**leadinstrument: original McGill primary instrumentation annotation
!!!RDT: 2017/01/12/
!!!ENC: Nathaniel Condit-Schultz
!!!EST: Awating manual error checking and editing.
